-----BEGIN PGP MESSAGE-----

hF4DsHNwDDu6SXYSAQdAYejbYpC0TGkO0P322QFPgdm2l7ROqAUvORd+bkAvD3ww
KE6T3CPRIXNKFMo0xTwB4MAsq7pCGhxuQvYP1S1NbJ2hanYb0icR9+ufSDKCv9E+
0sDvAZ5I6GyffahHTlJUMJ/NyMVHdZU8D6lG4eYvmoOOd3XwSPlCtbzQn5RPaXiJ
pRBUuq6d8RVezogfAn5vCJHo8HX+grHEUtS9JTczujyD+VBCm8xqTVdaq3DFJpnh
G2ed8T/xJo/IPV63zR+XhBReYPNJ8VJFLUTKFS/548HvdJgOnjYtod/vOopeD7XI
hTpRKzsaLu9GSVxMmGIkYRzt6m1sd/dazDM9392lP3Cz2YCjdrG/td8efDgFxEuo
5+YNM+UenVoqoVMRSuzTHVk5UWO3fdT9c67fXCsH4W24RoJsQ7cpdbAOIYSkJeDr
huEiPZvucklWQOEDjkgCoSUrgDtekBKlxsSSP+MhlKCnHlwBOcPtj6sWnLrpdaXu
uJgffqRS2gIELTjC1GlUy0iUODRN/Kv9bmpwAUpu8F5wMGGp+9SjslpNXHyK+UYn
5SwmlzrT/E81zqmU5h6lSLEbzghFHCHsxT2ZSjhvLa33+OV7oTD6YTnG1gNXqfrv
Xp6Xrw2LjxPm6g4R/snguaMVB1P884f2yD9ViyqaUMQc1o9g5y2TJ1u3fJDuWwkX
6Io=
=/+G5
-----END PGP MESSAGE-----
